X:1
T:The Grey Mare - Hoskins
C:Taken down from J Hoskins, Sth. Brent, by H.Fl.S.
%%VWML:SBG-1-1-261-0
F:http://www.vwml.org/record/SBG/1/1/261
Z:Original Sibleius Transcription by Martin and Shan Graebe
L:1/4
M:6/4
I:linebreak $
K:F
F | C D E F G A | d3/2 c/ d A2 d | c A F D B A | B3/2 G/ E F2 c |$ c A F F A c | d e f e2 A | 
A3/2 d/ d c e f | e c c c2 c/B/ |$ A c f d B G | c A F !fermata!E2 C/C/ | 
F3/2 E/ D !fermata!d c d | G F E D2 z ||



